images/flag.svg

<svg height="91" viewBox="0 0 75 91" width="75" xmlns="http://www.w3.org/2000/svg" xmlns:xlink="http://www.w3.org/1999/xlink"><mask id="a" fill="#fff"><path d="m.00006229.33664822h20.88256371v78.66335178h-20.88256371z" fill="none"/></mask><g fill="none" fill-rule="evenodd" transform=""><path d="m36.448593 12-23.448593 13.4276604 5.4920239 29.5723396 21.5079761-9.7549547z" fill="#fff"/><path d="m40 15.4580532 3.3503432 31.9414026-2.3979144 4.6005442 34.0475712-12.8938768-20.7391093-10.592856 11.7685848-28.5132672z" fill="#fff"/><path d="m20.8594909 77.4094542-12.40145454-65.8114717c1.02021819-.4322641 1.90145454-1.1272405 2.55054544-2.04133014.9175091-1.29120283 1.2622909-2.85368868.9713455-4.3979151-.2878909-1.54124528-1.1786728-2.88312735-2.50778185-3.77709434-1.32910909-.89284905-2.93350909-1.22934434-4.5172909-.94837264-3.27676364.58206604-5.45389091 3.65076887-4.85596364 6.83946227.28941818 1.54422641 1.1802 2.88610845 2.50778182 3.77858495.93049091.626783 2.00950909.9807924 3.12823636 1.0329622l12.40336361 65.8114717c.1168364.6271557.6784909 1.0918396 1.3321637 1.1045094h.0267272c.0820909 0 .168-.0078254.2516182-.0234764.3638727-.063349.6788727-.2627122.8892546-.5589622.2103818-.29625.2878909-.6547312.2214545-1.008368m-14.23227272-68.06148109c-1.77507273.31190095-3.48256363-.83546226-3.8052-2.56041981-.15654545-.83508962.02978182-1.67986792.52843637-2.3808066.49674545-.70131132 1.24358181-1.17083962 2.10114545-1.32362264.19625455-.03391038.39403636-.05254246.59181818-.05254246.02061818 0 .04123637 0 .06147273.00149057 1.54941818.02943868 2.87356364 1.12761321 3.15343636 2.6114717.15692728.83546226-.02978182 1.68173113-.52690909 2.38266981-.49674545.69944811-1.24510909 1.16897641-2.1042 1.32175943" fill="#212d3c" mask="url(#a)" transform="translate(0 12)"/></g></svg>

<?xml version="1.0" encoding="UTF-8"?>
<svg width="75px" height="91px" viewBox="0 0 75 91" version="1.1" xmlns="http://www.w3.org/2000/svg" xmlns:xlink="http://www.w3.org/1999/xlink">
    <!-- Generator: sketchtool 50.2 (55047) - http://www.bohemiancoding.com/sketch -->
    <title>B1B1AE44-48E9-4AF1-BB69-53FB8DFBF835</title>
    <desc>Created with sketchtool.</desc>
    <defs>
        <polygon id="path-1" points="6.22923234e-05 0.336648221 20.882626 0.336648221 20.882626 79 6.22923234e-05 79"></polygon>
    </defs>
    <g id="Future-Project-Desktop" stroke="none" stroke-width="1" fill="none" fill-rule="evenodd">
        <g id="Homepage-" transform="translate(-180.000000, -895.000000)">
            <g id="homepage/50-percent-copy-3" transform="translate(0.000000, 863.000000)">
                <g id="text" transform="translate(177.000000, 32.000000)">
                    <g id="flag" transform="translate(3.000000, 0.000000)">
                        <polygon id="Fill-1" fill="#FFFFFF" points="36.448593 12 13 25.4276604 18.4920239 55 40 45.2450453"></polygon>
                        <polygon id="Fill-2" fill="#FFFFFF" points="40 15.4580532 43.3503432 47.3994558 40.9524288 52 75 39.1061232 54.2608907 28.5132672 66.0294755 0"></polygon>
                        <g id="Group-5" transform="translate(0.000000, 12.000000)">
                            <mask id="mask-2" fill="white">
                                <use xlink:href="#path-1"></use>
                            </mask>
                            <g id="Clip-4"></g>
                            <path d="M20.8594909,77.4094542 L8.45803636,11.5979825 C9.47825455,11.1657184 10.3594909,10.470742 11.0085818,9.55665236 C11.9260909,8.26544953 12.2708727,6.70296368 11.9799273,5.15873726 C11.6920364,3.61749198 10.8012545,2.27560991 9.47214545,1.38164292 C8.14303636,0.488793868 6.53863636,0.152298585 4.95485455,0.433270283 C1.67809091,1.01533632 -0.499036364,4.08403915 0.0988909091,7.27273255 C0.388309091,8.81695896 1.27909091,10.158841 2.60667273,11.0513175 C3.53716364,11.6781005 4.61618182,12.0321099 5.73490909,12.0842797 L18.1382727,77.8957514 C18.2551091,78.5229071 18.8167636,78.987591 19.4704364,79.0002608 L19.4971636,79.0002608 C19.5792545,79.0002608 19.6651636,78.9924354 19.7487818,78.9767844 C20.1126545,78.9134354 20.4276545,78.7140722 20.6380364,78.4178222 C20.8484182,78.1215722 20.9259273,77.763091 20.8594909,77.4094542 M6.62721818,9.34797311 C4.85214545,9.65987406 3.14465455,8.51251085 2.82201818,6.7875533 C2.66547273,5.95246368 2.8518,5.10768538 3.35045455,4.4067467 C3.8472,3.70543538 4.59403636,3.23590708 5.4516,3.08312406 C5.64785455,3.04921368 5.84563636,3.0305816 6.04341818,3.0305816 C6.06403636,3.0305816 6.08465455,3.0305816 6.10489091,3.03207217 C7.65430909,3.06151085 8.97845455,4.15968538 9.25832727,5.64354387 C9.41525455,6.47900613 9.22854545,7.325275 8.73141818,8.02621368 C8.23467273,8.72566179 7.48630909,9.19519009 6.62721818,9.34797311" id="Fill-3" fill="#212D3C" mask="url(#mask-2)"></path>
                        </g>
                    </g>
                </g>
            </g>
        </g>
    </g>
</svg>
